dist/img/sprites/status.svg

<svg width="22" height="24" viewBox="0 0 22 24" fill="none" xmlns="http://www.w3.org/2000/svg">
<path d="M19.1744 0.833496C18.7108 0.833496 18.3336 1.21833 18.3336 1.69125V3.9719L17.8653 3.58742C15.9208 1.9911 13.4762 1.11227 10.9805 1.11227C10.9744 1.11227 10.9683 1.11227 10.9622 1.11227C4.90748 1.12298 -0.0101433 6.15618 1.57118e-05 12.3332C1.57118e-05 12.8068 0.377253 13.1916 0.840841 13.1916C1.30443 13.1916 1.68167 12.8071 1.68167 12.3342C1.67794 10.1762 2.40532 8.06064 3.72972 6.37726C5.28506 4.4006 7.50209 3.1601 9.97207 2.88443C12.4421 2.60876 14.8694 3.3304 16.807 4.9174L17.4454 5.44006H14.6594C14.1958 5.44006 13.8186 5.82489 13.8186 6.29781C13.8186 6.77073 14.1958 7.15556 14.6594 7.15556H19.1744C19.638 7.15556 20.0152 6.77073 20.0152 6.29781V1.69125C20.0152 1.21833 19.638 0.833496 19.1744 0.833496Z" fill="#4B8125"/>
<path d="M2.82422 23.8332C3.28781 23.8332 3.66505 23.4484 3.66505 22.9754V20.6948L4.13338 21.0793C6.15806 22.7412 8.5908 23.5492 11.0073 23.5492C14.2209 23.5492 17.4071 22.1211 19.574 19.3741C21.1422 17.3861 22.0037 14.8857 22 12.3335C22 11.8599 21.6227 11.4751 21.1592 11.4751C20.6956 11.4751 20.3183 11.8599 20.3183 12.3328C20.3227 14.8671 19.3593 17.2517 17.6055 19.0473C15.8518 20.843 13.5176 21.8341 11.0327 21.8386H11.0164C8.90641 21.8386 6.83905 21.0969 5.1933 19.7493L4.55498 19.2266H7.33955C7.80314 19.2266 8.18038 18.8418 8.18038 18.3689C8.18038 17.896 7.80314 17.5111 7.33955 17.5111H2.82422C2.36064 17.5111 1.9834 17.896 1.9834 18.3689V22.9748C1.9834 23.4477 2.36064 23.8325 2.82422 23.8325V23.8332Z" fill="#4B8125"/>
</svg>

<svg width="22" height="24" viewBox="0 0 22 24" fill="none" xmlns="http://www.w3.org/2000/svg"><path d="M19.174.833a.85.85 0 00-.84.858v2.28l-.469-.384a10.882 10.882 0 00-6.884-2.475h-.019C4.907 1.123-.01 6.156 0 12.333a.85.85 0 00.84.859.85.85 0 00.842-.858A9.643 9.643 0 013.73 6.377C5.285 4.401 7.502 3.16 9.972 2.884a9.113 9.113 0 016.835 2.033l.638.523H14.66a.85.85 0 00-.84.858.85.85 0 00.84.858h4.515a.85.85 0 00.841-.858V1.69a.85.85 0 00-.84-.858zm-16.35 23a.85.85 0 00.841-.858v-2.28l.468.384a10.797 10.797 0 006.874 2.47c3.214 0 6.4-1.428 8.567-4.175A11.382 11.382 0 0022 12.334a.85.85 0 00-.84-.859.85.85 0 00-.842.858 9.525 9.525 0 01-2.713 6.714c-1.753 1.796-4.087 2.787-6.572 2.792h-.017a9.219 9.219 0 01-5.823-2.09l-.638-.522H7.34a.85.85 0 00.84-.858.85.85 0 00-.84-.858H2.824a.85.85 0 00-.84.858v4.606a.85.85 0 00.84.857v.001z" fill="#4B8125"/></svg>
